src/assets/icon/liked-photolab.svg

<svg width="23" height="31" viewBox="0 0 23 31" fill="none" xmlns="http://www.w3.org/2000/svg">
<path d="M4 9C4 8.44772 4.44772 8 5 8H17C17.5523 8 18 8.44772 18 9V28.879C18 29.7244 17.016 30.1884 16.3637 29.6504L11.5039 25.6421C11.1284 25.3325 10.5846 25.338 10.2156 25.6553L5.65199 29.5795C5.00363 30.137 4 29.6764 4 28.8213V9Z" fill="#EC602D"/>
<foreignObject x="-20" y="-20" width="63" height="63"><div xmlns="http://www.w3.org/1999/xhtml" style="backdrop-filter:blur(10px);clip-path:url(#bgblur_0_3998_13815_clip_path);height:100%;width:100%"></div></foreignObject><circle data-figma-bg-blur-radius="20" cx="11.5" cy="11.5" r="11.5" fill="white" fill-opacity="0.2"/>
<path d="M11.0247 7.78774C11.1743 7.32709 11.826 7.32709 11.9757 7.78774L12.5498 9.55456C12.6167 9.76058 12.8087 9.90006 13.0253 9.90006H14.8831C15.3674 9.90006 15.5688 10.5199 15.177 10.8046L13.674 11.8965C13.4988 12.0238 13.4254 12.2495 13.4924 12.4555L14.0665 14.2224C14.2161 14.683 13.6889 15.0661 13.297 14.7814L11.7941 13.6894C11.6188 13.5621 11.3815 13.5621 11.2063 13.6894L9.70336 14.7814C9.3115 15.0661 8.78426 14.683 8.93393 14.2224L9.50801 12.4555C9.57495 12.2495 9.50162 12.0238 9.32637 11.8965L7.82343 10.8046C7.43157 10.5199 7.63296 9.90006 8.11732 9.90006H9.97506C10.1917 9.90006 10.3837 9.76058 10.4506 9.55456L11.0247 7.78774Z" fill="#D9D9D9"/>
<defs>
<clipPath id="bgblur_0_3998_13815_clip_path" transform="translate(20 20)"><circle cx="11.5" cy="11.5" r="11.5"/>
</clipPath></defs>
</svg>

<svg xmlns="http://www.w3.org/2000/svg" fill="none" viewBox="0 0 23 31">
  <path fill="#EC602D" d="M4 9a1 1 0 0 1 1-1h12a1 1 0 0 1 1 1v19.879a1 1 0 0 1-1.636.771l-4.86-4.008a1 1 0 0 0-1.288.013L5.652 29.58A1 1 0 0 1 4 28.822z"></path>

  <!-- foreignObject 제거 -->
  <circle cx="11.5" cy="11.5" r="11.5" fill="#fff" fill-opacity="0.2"></circle>

  <path fill="#D9D9D9" d="M11.025 7.788a.5.5 0 0 1 .95 0l.575 1.767a.5.5 0 0 0 .475.345h1.858a.5.5 0 0 1 .294.905l-1.503 1.092a.5.5 0 0 0-.182.559l.574 1.766a.5.5 0 0 1-.769.56l-1.503-1.093a.5.5 0 0 0-.588 0l-1.503 1.092a.5.5 0 0 1-.77-.559l.575-1.766a.5.5 0 0 0-.182-.56l-1.503-1.091a.5.5 0 0 1 .294-.905h1.858a.5.5 0 0 0 .476-.345z"></path>
</svg>
